X:1
T:60 Lessons for 2 Guitars, Op.168 - Joseph Küffner (1776 - 1856)
T:Leçon No.57
T:60 Lessons for 2 Guitars, Op.168 "à l'usage des commençants"
T:Joseph Küffner (1776 - 1856)
%%score { ( 1 2 ) ( 3 4 ) } { ( 5 6 ) ( 7 8 ) }
L:1/8
Q:1/4=80
M:4/4
K:C
V:1 treble-8 nm="Classical Guitar"
V:2 treble-8 
V:3 tab stafflines=6 strings=E2,A2,D3,G3,B3,E4 nostems nm="Guitare classique [Tablature]"
V:4 tab stafflines=6 strings=E2,A2,D3,G3,B3,E4 nostems 
V:5 treble-8 nm="Guitare classique"
V:6 treble-8 
V:7 tab stafflines=6 strings=E2,A2,D3,G3,B3,E4 nostems nm="Guitare classique [Tablature]"
V:8 tab stafflines=6 strings=E2,A2,D3,G3,B3,E4 nostems 
V:1
"^Marche""_" !arpeggio![Gce]2 e>e e(f/e/) .d/.c/.B/.A/ | G2 [FGB]2 [EGc]2 z2 | f2 e>d e2 d>c | %3
 [Bd]2 !arpeggio![DAc^f]2 [GBg]gf=f | !arpeggio![Gce]2 e>e e(f/e/) .d/.c/.B/.A/ | %5
 [^GB]2 e>d [Ac]>AB>c | [Bd]2 [=GB]>[GB] [Ac]2 !arpeggio![DAc^f]2 | %7
 !arpeggio![G,GBg]2 [GBg]>[GBg] [GBg]2 z2 ::"_" G2 df fe.d.c | [FGB]2 [FGB]>[FGB] [EGc]2 [CGce]2 | %10
 G2 df (fe).d.c |"_cresc." g(^fg)(f g).f.=f.d |"_" !arpeggio![Gce]2 e>e e(f/e/) .d/.c/.B/.A/ | %13
 G2 [GB]2 [Gc]>cd>e | f>fe>d [Gc]2 [GB]2 | !arpeggio![CEGc]2 z{/^f} g d2 z{/f} g | %16
 e2 z ^c d=f e/d/=c/B/ | c2 z{/^f} g d2 z{/f} g | e2 z ^c d=f e/d/=c/B/ | c>eG>B c>eG>B | %20
 [Ec]2 [Ge]2 [Ec]2 z2 :| %21
V:2
 C4 z4 | x8 | x8 | x4 G,2 z2 | C4 z4 | E,2 ^G2 A,3/2 z/ z2 | x8 | x8 :: x8 | x8 | x8 | x8 | C4 z4 | %13
 z2 F2 E3/2 z/ z2 | A3/2 z/ z2 E2 D2 | x8 | x8 | x8 | x8 | x8 | x8 :| %21
V:3
 [!3!G,!2!C!1!E]2 !1!E3/2 !1!E/ !1!E (!1!F/ !1!E/) !2!D/ !2!C/ !2!B,/ !3!A,/ | %1
 !3!G,2 [!4!F,!3!G,!2!B,]2 [!4!E,!3!G,!2!C]2 x2 | !1!F2 !1!E3/2 !2!D/ !1!E2 !2!D3/2 !2!C/ | %3
 [!3!B,!2!D]2 [!4!D,!3!A,!2!C!1!^F]2 [!3!G,!2!B,!1!G] !1!G !1!F !1!=F | %4
 [!3!G,!2!C!1!E]2 !1!E3/2 !1!E/ !1!E (!1!F/ !1!E/) !2!D/ !2!C/ !2!B,/ !3!A,/ | %5
 [!3!^G,!2!B,]2 !1!E3/2 !2!D/ [!3!A,!2!C]3/2 !3!A,/ !2!B,3/2 !2!C/ | %6
 [!3!B,!2!D]2 [!3!=G,!2!B,]3/2 [!3!G,!2!B,]/ [!3!A,!2!C]2 [!4!D,!3!A,!2!C!1!^F]2 | %7
 [!6!G,,!3!G,!2!B,!1!G]2 [!3!G,!2!B,!1!G]3/2 [!3!G,!2!B,!1!G]/ [!3!G,!2!B,!1!G]2 x2 :: %8
 !3!G,2 !2!D !1!F !1!F !1!E !2!D !2!C | %9
 [!4!F,!3!G,!2!B,]2 [!4!F,!3!G,!2!B,]3/2 [!4!F,!3!G,!2!B,]/ [!4!E,!3!G,!2!C]2 [!5!C,!3!G,!2!C!1!E]2 | %10
 !3!G,2 !2!D !1!F (!1!F !1!E) !2!D !2!C | !1!G (!1!^F !1!G) (!1!F !1!G) !1!F !1!=F !2!D | %12
 [!3!G,!2!C!1!E]2 !1!E3/2 !1!E/ !1!E (!1!F/ !1!E/) !2!D/ !2!C/ !2!B,/ !3!A,/ | %13
 !3!G,2 [!3!G,!2!B,]2 [!3!G,!2!C]3/2 !2!C/ !2!D3/2 !1!E/ | %14
 !1!F3/2 !1!F/ !1!E3/2 !2!D/ [!3!G,!2!C]2 [!3!G,!2!B,]2 | %15
 [!5!C,!4!E,!3!G,!2!C]2 x{/!1!^F} !1!G !2!D2 x{/!1!F} !1!G | %16
 !1!E2 x !2!^C !2!D !1!=F !1!E/ !2!D/ !2!=C/ !2!B,/ | !2!C2 x{/!1!^F} !1!G !2!D2 x{/!1!F} !1!G | %18
 !1!E2 x !2!^C !2!D !1!=F !1!E/ !2!D/ !2!=C/ !2!B,/ | %19
 !2!C3/2 !1!E/ !3!G,3/2 !2!B,/ !2!C3/2 !1!E/ !3!G,3/2 !2!B,/ | %20
 [!4!E,!2!C]2 [!3!G,!1!E]2 [!4!E,!2!C]2 x2 :| %21
V:4
 !5!C,4 x4 | x8 | x8 | x4 !6!G,,2 x2 | !5!C,4 x4 | !6!E,,2 !3!^G,2 !5!A,,3/2 x/ x2 | x8 | x8 :: %8
 x8 | x8 | x8 | x8 | !5!C,4 x4 | x2 !4!F,2 !4!E,3/2 x/ x2 | !3!A,3/2 x/ x2 !4!E,2 !4!D,2 | x8 | %16
 x8 | x8 | x8 | x8 | x8 :| %21
V:5
"_" z/ E/G/c/ z/ E/G/c/ z/ F/A/d/ z/ F/A/d/ | z/ E/G/c/ z/ D/G/B/ z/ E/G/E/ c/E/G/E/ | %2
 z/ G/d/G/ z/ G/d/G/ z/ G/c/G/ z/ G/c/G/ | z/ G/B/G/ z/ A/c/A/ [GB]G,/G/ A,/G/B,/G/ | %4
 z/ G/c/G/ e/G/c/G/ z/ A/c/A/ e/A/c/A/ | z/ ^G/B/G/ z/ G/B/G/ z/ A/c/A/ z/ E/A/E/ | %6
 z/ =G/B/G/ z/ G/B/G/ z/ A/c/A/ z/ A/c/A/ | z/ G/B/g/ G/B/D/G/ G,2 z2 :: %8
"_" z [FGB][FGB][FGB] z [EGc][EGc][EGc] | z .G.D.F .F.E.D.C | %10
 z [FGB][FGB][FGB] z [EGc][EGc][EGc] | %11
"_cresc." !arpeggio![G,DGB]2 !arpeggio![G,EGc]2 !arpeggio![G,FGd]2 z2 | %12
"_" z/ E/G/c/ z/ E/G/c/ z/ F/A/d/ z/ F/A/d/ | z/ E/G/c/ z/ D/G/B/ C/c/C/c/ B,/B/_B,/_B/ | %14
 z/ A/c/f/ z/ F/A/d/ z/ E/G/c/ z/ F/G/B/ | z/ E/G/c/ z/ E/G/c/ z/ D/G/B/ z/ D/G/B/ | %16
 z/ E/G/c/ z/ E/A/^c/ z/ F/A/d/ z/ D/G/B/ | z/ E/G/c/ z/ E/G/c/ z/ D/G/B/ z/ D/G/B/ | %18
 z/ E/G/c/ z/ E/A/^c/ z/ F/A/d/ z/ D/G/B/ | %19
 !arpeggio![CEGc]2 !arpeggio![G,DGB]2 !arpeggio![CEGc]2 !arpeggio![G,DGB]2 | %20
 z E/G/ c/G/E/G/ C2 z2 :| %21
V:6
 C2 E,2 F,2 F,2 | G,2 G,2 C4 | B,2 B,2 C2 E2 | D2 D2 G,G, A,B, | C4 A,4 | E,2 E2 A,2 C2 | %6
 D2 D2 D2 D2 | G,4 x4 :: G,4 C4 | G,2 z2 z4 | G,4 C4 | x8 | C2 E,2 F,2 F,2 | G,2 G,2 CC B,_B, | %14
 A,2 F,2 G,2 G,2 | C2 C2 G,2 G,2 | C2 A,2 F,2 G,2 | C2 C2 G,2 G,2 | C2 A,2 F,2 G,2 | x8 | C4 x4 :| %21
V:7
 x/ !4!E,/ !3!G,/ !2!C/ x/ !4!E,/ !3!G,/ !2!C/ x/ !4!F,/ !3!A,/ !2!D/ x/ !4!F,/ !3!A,/ !2!D/ | %1
 x/ !4!E,/ !3!G,/ !2!C/ x/ !4!D,/ !3!G,/ !2!B,/ x/ !4!E,/ !3!G,/ !4!E,/ !2!C/ !4!E,/ !3!G,/ !4!E,/ | %2
 x/ !3!G,/ !2!D/ !3!G,/ x/ !3!G,/ !2!D/ !3!G,/ x/ !3!G,/ !2!C/ !3!G,/ x/ !3!G,/ !2!C/ !3!G,/ | %3
 x/ !3!G,/ !2!B,/ !3!G,/ x/ !3!A,/ !2!C/ !3!A,/ [!3!G,!2!B,] x/ !3!G,/ !5!A,,/ !3!G,/ !5!B,,/ !3!G,/ | %4
 x/ !3!G,/ !2!C/ !3!G,/ !1!E/ !3!G,/ !2!C/ !3!G,/ x/ !3!A,/ !2!C/ !3!A,/ !1!E/ !3!A,/ !2!C/ !3!A,/ | %5
 x/ !3!^G,/ !2!B,/ !3!G,/ x/ !3!G,/ !2!B,/ !3!G,/ x/ !3!A,/ !2!C/ !3!A,/ x/ !4!E,/ !3!A,/ !4!E,/ | %6
 x/ !3!=G,/ !2!B,/ !3!G,/ x/ !3!G,/ !2!B,/ !3!G,/ x/ !3!A,/ !2!C/ !3!A,/ x/ !3!A,/ !2!C/ !3!A,/ | %7
 x/ !3!G,/ !2!B,/ !1!G/ !3!G,/ !2!B,/ !4!D,/ !3!G,/ !6!G,,2 x2 :: %8
 x [!4!F,!3!G,!2!B,] [!4!F,!3!G,!2!B,] [!4!F,!3!G,!2!B,] x [!4!E,!3!G,!2!C] [!4!E,!3!G,!2!C] [!4!E,!3!G,!2!C] | %9
 x !3!G, !4!D, !4!F, !4!F, !4!E, !4!D, !5!C, | %10
 x [!4!F,!3!G,!2!B,] [!4!F,!3!G,!2!B,] [!4!F,!3!G,!2!B,] x [!4!E,!3!G,!2!C] [!4!E,!3!G,!2!C] [!4!E,!3!G,!2!C] | %11
 [!6!G,,!4!D,!3!G,!2!B,]2 [!6!G,,!4!E,!3!G,!2!C]2 [!6!G,,!4!F,!3!G,!2!D]2 x2 | %12
 x/ !4!E,/ !3!G,/ !2!C/ x/ !4!E,/ !3!G,/ !2!C/ x/ !4!F,/ !3!A,/ !2!D/ x/ !4!F,/ !3!A,/ !2!D/ | %13
 x/ !4!E,/ !3!G,/ !2!C/ x/ !4!D,/ !3!G,/ !2!B,/ !5!C,/ !2!C/ !5!C,/ !2!C/ !5!B,,/ !2!B,/ !5!_B,,/ !3!_B,/ | %14
 x/ !3!A,/ !2!C/ !1!F/ x/ !4!F,/ !3!A,/ !2!D/ x/ !4!E,/ !3!G,/ !2!C/ x/ !4!F,/ !3!G,/ !2!B,/ | %15
 x/ !4!E,/ !3!G,/ !2!C/ x/ !4!E,/ !3!G,/ !2!C/ x/ !4!D,/ !3!G,/ !2!B,/ x/ !4!D,/ !3!G,/ !2!B,/ | %16
 x/ !4!E,/ !3!G,/ !2!C/ x/ !4!E,/ !3!A,/ !2!^C/ x/ !4!F,/ !3!A,/ !2!D/ x/ !4!D,/ !3!G,/ !2!B,/ | %17
 x/ !4!E,/ !3!G,/ !2!C/ x/ !4!E,/ !3!G,/ !2!C/ x/ !4!D,/ !3!G,/ !2!B,/ x/ !4!D,/ !3!G,/ !2!B,/ | %18
 x/ !4!E,/ !3!G,/ !2!C/ x/ !4!E,/ !3!A,/ !2!^C/ x/ !4!F,/ !3!A,/ !2!D/ x/ !4!D,/ !3!G,/ !2!B,/ | %19
 [!5!C,!4!E,!3!G,!2!C]2 [!6!G,,!4!D,!3!G,!2!B,]2 [!5!C,!4!E,!3!G,!2!C]2 [!6!G,,!4!D,!3!G,!2!B,]2 | %20
 x !4!E,/ !3!G,/ !2!C/ !3!G,/ !4!E,/ !3!G,/ !5!C,2 x2 :| %21
V:8
 !5!C,2 !6!E,,2 !6!F,,2 !6!F,,2 | !6!G,,2 !6!G,,2 !5!C,4 | !5!B,,2 !5!B,,2 !5!C,2 !4!E,2 | %3
 !4!D,2 !4!D,2 !6!G,, !6!G,, x x | !5!C,4 !5!A,,4 | !6!E,,2 !4!E,2 !5!A,,2 !5!C,2 | %6
 !4!D,2 !4!D,2 !4!D,2 !4!D,2 | !6!G,,4 x4 :: !6!G,,4 !5!C,4 | !6!G,,2 x2 x4 | !6!G,,4 !5!C,4 | x8 | %12
 !5!C,2 !6!E,,2 !6!F,,2 !6!F,,2 | !6!G,,2 !6!G,,2 x x x x | !5!A,,2 !6!F,,2 !6!G,,2 !6!G,,2 | %15
 !5!C,2 !5!C,2 !6!G,,2 !6!G,,2 | !5!C,2 !5!A,,2 !6!F,,2 !6!G,,2 | !5!C,2 !5!C,2 !6!G,,2 !6!G,,2 | %18
 !5!C,2 !5!A,,2 !6!F,,2 !6!G,,2 | x8 | !5!C,4 x4 :| %21

